X: 19735
T: Jenny Picking Cockles
R: reel
M: 4/4
K: Dmixolydian
|:Addc AGEF|GEcE dEcE|Addc AGEF|GEcE EDD2|
Addc AGEF|~G2AB c3d|eddc AGEF|GEcE EDD2:|
|:f2fd efed|^cAAB cdeg|fedf ed^cd|eaag edd2|
f2fd efed|^cAAB =c3d|eddc AGEF|GEcE EDD2:|

